src/icons/IconCopy/IconCopy_size_xs.svg

<svg viewBox="0 0 12 12" xmlns="http://www.w3.org/2000/svg">
  <path
    d="M4 2C4 1.44772 4.44772 1 5 1H10C10.5523 1 11 1.44772 11 2V7C11 7.55228 10.5523 8 10 8H9V4C9 3.44772 8.55228 3 8 3H4V2Z"
  />
  <path
    d="M2 4C1.44772 4 1 4.44772 1 5V10C1 10.5523 1.44772 11 2 11H7C7.55228 11 8 10.5523 8 10V5C8 4.44772 7.55228 4 7 4H2Z"
  />
</svg>

<svg viewBox="0 0 12 12" xmlns="http://www.w3.org/2000/svg">
  <path d="M4 2a1 1 0 011-1h5a1 1 0 011 1v5a1 1 0 01-1 1H9V4a1 1 0 00-1-1H4V2z" />
  <path d="M2 4a1 1 0 00-1 1v5a1 1 0 001 1h5a1 1 0 001-1V5a1 1 0 00-1-1H2z" />
</svg>
